X:1
T:St. Patrick (Sullivan), 77.77 D
T:St. Patrick (Sullivan), 77.77 D
T:Arthur Seymour Sullivan, 1874
T:Public Domain Courtesy of the Cyber Hymnal™
C:Arthur Seymour Sullivan, 1874
Z:Public Domain
Z:Courtesy of the Cyber Hymnal™
%%score ( 1 2 ) ( 3 4 )
L:1/8
Q:1/4=115
M:4/4
K:D
V:1 treble 
V:2 treble 
V:3 bass 
V:4 bass 
V:1
 DD | D4 z2 [DF]2 | [FA]3 [FA] [GB]4 | [DA]2 [DF]2 [CE]2 D2 | [B,D]2 (CD) [CE]4 | %5
 [CE]3 [CE] [CA]2 [EA]2 | [Ac]3 [^GB] A4 | E3 E [FA]2 [FA]2 | c3 z B [FA]4 | %9
 [CA]3 [CA] [Dd]2 [DA]2 | [EG]2 [DF]2 [CE]4 | [CA]3 [CA] [Dd]2 [DA]2 | [CG]2 [DF]2 [CE]4 | %13
 [DF]2 [DF]2 [CG]2 [CE]2 | [DA]3 [DA] [DB]4 | [Ec]2 [DA]2 [Dd]2 D2 | [DF]4 [CE]4 | D6 |] %18
V:2
 DD | D4 x4 | x8 | x6 D2 | x2 CD x4 | x8 | x4 A4 | E3 E x4 | F2 ^E2 x5 | x8 | x8 | x8 | x8 | x8 | %14
 x8 | x6 D2 | x8 | D6 |] %18
V:3
 D,D, | D,4 z2 [D,A,]2 | [D,D]3 [D,D] [G,D]4 | [F,A,]2 [D,A,]2 [A,,A,]2 [F,,A,]2 | %4
 [B,,A,]2 [B,,^G,]2 [A,,A,]4 | [A,,A,]3 [A,,A,] [A,,A,]2 [C,A,]2 | [E,E]3 [E,D] [A,C]4 | %7
 [A,C]3 [A,C] [F,C]2 [F,C]2 | [C,A,]2 [C,^G,]2 F,4 x | [G,A,]3 [G,A,] [F,A,]2 [F,A,]2 | %10
 [C,A,]2 [D,A,]2 [A,,A,]4 | [G,A,]3 [G,A,] [F,A,]2 [F,A,]2 | [E,A,]2 [D,A,]2 [A,,A,]4 | %13
 [D,A,]2 [D,A,]2 [E,A,]2 [G,A,]2 | A,2 z [G,B,]4 x | [G,A,]2 [G,A,]2 [F,A,]2 [B,,G,]2 | %16
 [A,,A,]4 [A,,G,]4 | [D,F,]6 |] %18
V:4
 D,D, | D,4 x4 | x8 | x8 | x8 | x8 | x8 | x8 | x4 F,4 x | x8 | x8 | x8 | x8 | x8 | %14
 F,3 (=C2 F,) x2 | x8 | x8 | x6 |] %18

